_uploads/logo-digidemlab.svg

<svg width="300" height="84" xmlns="http://www.w3.org/2000/svg" xmlns:xlink="http://www.w3.org/1999/xlink"><defs><path id="a" d="M0 0.233L299.225 0.233 299.225 84 0 84z"/></defs><g fill="none" fill-rule="evenodd"><path d="M0 .233V84H299.225V.234H0zm5.655 5.655H293.57v72.458H5.655V5.888z" fill="#30F"/><path d="M46.191 55.328c1.883 0 2.952-.204 3.512-2.036.254-.866.458-2.189.509-3.97.05-1.782.05-4.175.05-7.229 0-3.054 0-5.447-.05-7.228-.051-1.73-.255-3.054-.509-3.97-.56-1.782-1.629-1.985-3.512-1.985v26.418zm-5.498 5.496v-37.41h4.327c5.09 0 7.839 1.016 9.315 3.867 1.425 2.85 1.629 7.533 1.629 14.863 0 7.33-.204 11.962-1.629 14.812-1.476 2.851-4.225 3.868-9.315 3.868h-4.327z" fill="#30F"/><mask id="b" fill="#fff"><use xlink:href="#a"/></mask><path fill="#30F" mask="url(#b)" d="M64.716 23.413L70.214 23.413 70.214 60.825 64.716 60.825z"/><path fill="#30F" mask="url(#b)" d="M102.465 23.413L107.963 23.413 107.963 60.825 102.465 60.825z"/><path d="M122.28 55.328c1.883 0 2.952-.204 3.512-2.036.254-.866.458-2.189.509-3.97.05-1.782.05-4.175.05-7.229 0-3.054 0-5.447-.05-7.228-.051-1.73-.255-3.054-.51-3.97-.56-1.782-1.628-1.985-3.511-1.985v26.418zm-5.498 5.496v-37.41h4.327c5.09 0 7.839 1.016 9.315 3.867 1.425 2.85 1.629 7.533 1.629 14.863 0 7.33-.204 11.962-1.63 14.812-1.475 2.851-4.224 3.868-9.314 3.868h-4.327z" fill="#30F" mask="url(#b)"/><path fill="#30F" mask="url(#b)" d="M140.8047 23.4127L153.3777 23.4127 153.3777 29.0627 146.3027 29.0627 146.3027 38.8857 151.3917 38.8857 151.3917 44.8927 146.3027 44.8927 146.3027 55.1747 153.3777 55.1747 153.3777 60.8247 140.8047 60.8247z"/><path fill="#30F" mask="url(#b)" d="M171.2908 60.8244L167.7788 37.3094 167.5748 35.7304 167.2698 35.7304 167.2698 60.8244 162.1788 60.8244 162.1788 23.4124 168.8978 23.4124 172.1558 40.5154 172.4108 42.5004 172.5118 42.5004 172.7668 40.5154 176.0238 23.4124 182.7428 23.4124 182.7428 60.8244 177.6538 60.8244 177.6538 35.7304 177.3478 35.7304 177.1438 37.3094 173.6328 60.8244z"/><path fill="#30F" mask="url(#b)" d="M200.4679 23.4127L205.9659 23.4127 205.9659 55.7357 213.2449 55.7357 213.2449 60.8247 200.4679 60.8247z"/><path d="M228.87 35.578l-.154-.966h-.305l-.153.966-1.578 11.809h3.767l-1.578-11.81zm-9.316 25.247l5.65-37.412h6.72l5.65 37.412h-5.346l-1.017-7.635h-5.295l-1.018 7.635h-5.344zm29.667-5.447c.458 0 1.527.102 2.443-.56.916-.661 1.63-2.136 1.63-5.192 0-3.054-.714-4.53-1.63-5.191-.916-.661-1.985-.561-2.443-.561v11.504zm0-16.542c.458 0 1.527.05 2.443-.56.916-.61 1.63-1.833 1.63-4.428 0-2.597-.714-3.818-1.63-4.43-.916-.61-1.985-.558-2.443-.558v9.976zm-5.498 21.989V23.413h4.836c3.258 0 5.803.61 7.482 2.188 1.68 1.578 2.546 4.022 2.546 7.737 0 1.78-.153 3.105-.713 4.328-.56 1.22-1.425 2.239-2.698 3.41 1.374.763 2.392 2.188 3.207 4.58.407 1.172.611 2.699.611 4.582 0 2.8-.51 5.293-1.782 7.228-1.272 1.934-3.46 3.207-6.719 3.359h-6.77zM93.677 36.85v-5.752c-.051-1.476-.356-2.85-.916-4.021-.458-1.018-1.171-2.036-2.189-2.799-1.018-.763-2.393-1.272-4.225-1.272-1.832 0-3.258.509-4.276 1.273-1.017.762-1.679 1.78-2.138 2.797-.56 1.171-.865 2.546-.916 4.023v22.04c.051 1.475.356 2.85.916 4.021.459 1.018 1.121 2.036 2.138 2.799 1.018.763 2.444 1.272 4.276 1.272 1.832 0 3.207-.509 4.225-1.273 1.018-.762 1.731-1.78 2.189-2.797.56-1.172.865-2.547.916-4.023V42.197h-6.985v4.632h1.487V53.138c0 1.02-.203 1.732-.712 2.342-.255.254-.662.408-1.12.408-.967 0-1.425-.713-1.629-1.374-.153-.408-.203-.867-.203-1.376V31.1c0-.51.05-.968.203-1.375.204-.662.662-1.375 1.629-1.375.458 0 .865.154 1.12.409.509.61.712 1.322.712 2.34v5.752h5.498z" fill="#30F" mask="url(#b)"/></g></svg>

<?xml version="1.0" encoding="UTF-8"?>
<svg width="300px" height="84px" viewBox="0 0 300 84" version="1.1" xmlns="http://www.w3.org/2000/svg" xmlns:xlink="http://www.w3.org/1999/xlink">
    <!-- Generator: Sketch 42 (36781) - http://www.bohemiancoding.com/sketch -->
    <title>Logotyp</title>
    <desc>Created with Sketch.</desc>
    <defs>
        <polygon id="path-1" points="0 0.233 299.225 0.233 299.225 84 0 84"></polygon>
    </defs>
    <g id="Symbols" stroke="none" stroke-width="1" fill="none" fill-rule="evenodd">
        <g id="Header" transform="translate(0.000000, -3.000000)">
            <g id="Logotyp" transform="translate(0.000000, 3.000000)">
                <path d="M0,0.2325 L0,5.8885 L0,78.3455 L0,84.0005 L5.655,84.0005 L293.57,84.0005 L299.225,84.0005 L299.225,0.2325 L0,0.2325 Z M5.655,5.8885 L293.57,5.8885 L293.57,78.3455 L5.655,78.3455 L5.655,5.8885 Z" id="Fill-1" fill="#3300FF"></path>
                <g id="Group-14">
                    <path d="M46.191,55.3281 C48.074,55.3281 49.143,55.1241 49.703,53.2921 C49.957,52.4261 50.161,51.1031 50.212,49.3211 C50.262,47.5401 50.262,45.1471 50.262,42.0931 C50.262,39.0391 50.262,36.6461 50.212,34.8651 C50.161,33.1351 49.957,31.8111 49.703,30.8941 C49.143,29.1131 48.074,28.9101 46.191,28.9101 L46.191,55.3281 Z M40.693,60.8241 L40.693,23.4131 L45.02,23.4131 C50.11,23.4131 52.859,24.4301 54.335,27.2811 C55.76,30.1311 55.964,34.8141 55.964,42.1441 C55.964,49.4741 55.76,54.1061 54.335,56.9561 C52.859,59.8071 50.11,60.8241 45.02,60.8241 L40.693,60.8241 Z" id="Fill-2" fill="#3300FF"></path>
                    <mask id="mask-2" fill="white">
                        <use xlink:href="#path-1"></use>
                    </mask>
                    <g id="Clip-5"></g>
                    <polygon id="Fill-4" fill="#3300FF" mask="url(#mask-2)" points="64.716 23.413 70.214 23.413 70.214 60.825 64.716 60.825"></polygon>
                    <polygon id="Fill-6" fill="#3300FF" mask="url(#mask-2)" points="102.465 23.413 107.963 23.413 107.963 60.825 102.465 60.825"></polygon>
                    <path d="M122.2798,55.3281 C124.1628,55.3281 125.2318,55.1241 125.7918,53.2921 C126.0458,52.4261 126.2498,51.1031 126.3008,49.3211 C126.3518,47.5401 126.3518,45.1471 126.3518,42.0931 C126.3518,39.0391 126.3518,36.6461 126.3008,34.8651 C126.2498,33.1351 126.0458,31.8111 125.7918,30.8941 C125.2318,29.1131 124.1628,28.9101 122.2798,28.9101 L122.2798,55.3281 Z M116.7818,60.8241 L116.7818,23.4131 L121.1088,23.4131 C126.1988,23.4131 128.9478,24.4301 130.4238,27.2811 C131.8488,30.1311 132.0528,34.8141 132.0528,42.1441 C132.0528,49.4741 131.8488,54.1061 130.4238,56.9561 C128.9478,59.8071 126.1988,60.8241 121.1088,60.8241 L116.7818,60.8241 Z" id="Fill-7" fill="#3300FF" mask="url(#mask-2)"></path>
                    <polygon id="Fill-8" fill="#3300FF" mask="url(#mask-2)" points="140.8047 23.4127 153.3777 23.4127 153.3777 29.0627 146.3027 29.0627 146.3027 38.8857 151.3917 38.8857 151.3917 44.8927 146.3027 44.8927 146.3027 55.1747 153.3777 55.1747 153.3777 60.8247 140.8047 60.8247"></polygon>
                    <polygon id="Fill-9" fill="#3300FF" mask="url(#mask-2)" points="171.2908 60.8244 167.7788 37.3094 167.5748 35.7304 167.2698 35.7304 167.2698 60.8244 162.1788 60.8244 162.1788 23.4124 168.8978 23.4124 172.1558 40.5154 172.4108 42.5004 172.5118 42.5004 172.7668 40.5154 176.0238 23.4124 182.7428 23.4124 182.7428 60.8244 177.6538 60.8244 177.6538 35.7304 177.3478 35.7304 177.1438 37.3094 173.6328 60.8244"></polygon>
                    <polygon id="Fill-10" fill="#3300FF" mask="url(#mask-2)" points="200.4679 23.4127 205.9659 23.4127 205.9659 55.7357 213.2449 55.7357 213.2449 60.8247 200.4679 60.8247"></polygon>
                    <path d="M228.8693,35.5776 L228.7163,34.6116 L228.4113,34.6116 L228.2583,35.5776 L226.6803,47.3866 L230.4473,47.3866 L228.8693,35.5776 Z M219.5543,60.8246 L225.2043,23.4126 L231.9233,23.4126 L237.5733,60.8246 L232.2283,60.8246 L231.2113,53.1896 L225.9163,53.1896 L224.8983,60.8246 L219.5543,60.8246 Z" id="Fill-11" fill="#3300FF" mask="url(#mask-2)"></path>
                    <path d="M249.2214,55.3778 C249.6794,55.3778 250.7484,55.4798 251.6644,54.8188 C252.5804,54.1568 253.2934,52.6818 253.2934,49.6258 C253.2934,46.5718 252.5804,45.0958 251.6644,44.4348 C250.7484,43.7738 249.6794,43.8738 249.2214,43.8738 L249.2214,55.3778 Z M249.2214,38.8358 C249.6794,38.8358 250.7484,38.8858 251.6644,38.2758 C252.5804,37.6658 253.2934,36.4428 253.2934,33.8478 C253.2934,31.2508 252.5804,30.0298 251.6644,29.4188 C250.7484,28.8078 249.6794,28.8598 249.2214,28.8598 L249.2214,38.8358 Z M243.7234,60.8248 L243.7234,23.4128 L248.5594,23.4128 C251.8174,23.4128 254.3624,24.0228 256.0414,25.6008 C257.7214,27.1788 258.5874,29.6228 258.5874,33.3378 C258.5874,35.1188 258.4344,36.4428 257.8744,37.6658 C257.3144,38.8858 256.4494,39.9048 255.1764,41.0758 C256.5504,41.8388 257.5684,43.2638 258.3834,45.6568 C258.7904,46.8278 258.9944,48.3548 258.9944,50.2378 C258.9944,53.0378 258.4844,55.5308 257.2124,57.4658 C255.9404,59.3998 253.7514,60.6728 250.4934,60.8248 L243.7234,60.8248 Z" id="Fill-12" fill="#3300FF" mask="url(#mask-2)"></path>
                    <path d="M93.677,36.8505 L93.677,31.0985 C93.626,29.6225 93.321,28.2475 92.761,27.0765 C92.303,26.0595 91.59,25.0415 90.572,24.2785 C89.554,23.5145 88.179,23.0055 86.347,23.0055 C84.515,23.0055 83.089,23.5145 82.071,24.2785 C81.054,25.0415 80.392,26.0595 79.933,27.0765 C79.373,28.2475 79.068,29.6225 79.017,31.0985 L79.017,44.0825 L79.017,53.1385 C79.068,54.6145 79.373,55.9895 79.933,57.1605 C80.392,58.1775 81.054,59.1955 82.071,59.9585 C83.089,60.7225 84.515,61.2315 86.347,61.2315 C88.179,61.2315 89.554,60.7225 90.572,59.9585 C91.59,59.1955 92.303,58.1775 92.761,57.1605 C93.321,55.9895 93.626,54.6145 93.677,53.1385 L93.677,47.3865 L93.677,42.1955 L86.692,42.1955 L86.692,46.8275 L88.179,46.8275 L88.179,47.3865 L88.179,49.5655 L88.179,53.1385 C88.179,54.1575 87.976,54.8695 87.467,55.4795 C87.212,55.7335 86.805,55.8875 86.347,55.8875 C85.38,55.8875 84.922,55.1745 84.718,54.5135 C84.565,54.1065 84.515,53.6475 84.515,53.1385 L84.515,44.0825 L84.515,31.0985 C84.515,30.5895 84.565,30.1305 84.718,29.7235 C84.922,29.0625 85.38,28.3495 86.347,28.3495 C86.805,28.3495 87.212,28.5035 87.467,28.7575 C87.976,29.3675 88.179,30.0795 88.179,31.0985 L88.179,36.8505 L93.677,36.8505 Z" id="Fill-13" fill="#3300FF" mask="url(#mask-2)"></path>
                </g>
            </g>
        </g>
    </g>
</svg>
